icons/actions/22/document-open-remote.svg

<svg xmlns="http://www.w3.org/2000/svg" viewBox="0 0 22 22">
  <defs id="defs3051">
    <style type="text/css" id="current-color-scheme">
      .ColorScheme-Text {
        color:#4d4d4d;
      }
      </style>
  </defs>
 <path 
    style="fill:currentColor;fill-opacity:1;stroke:none" 
	d="m3 3v1 11h1v-5h3v-.007813l.007813.007813 2-2h8.992188v7h1v-10h-6.992188l-2-2-.007812.007813v-.007813h-6-1m6 13v1h-6v1h6v1h4v-1h6v-1h-6v-1h-4m2 .5c.554 0 1 .446 1 1 0 .554-.446 1-1 1-.554 0-1-.446-1-1 0-.554.446-1 1-1"
    class="ColorScheme-Text"
    />
</svg>

<?xml version="1.0"?>
<!-- Created with Inkscape (http://www.inkscape.org/) -->
<svg xmlns:dc="http://purl.org/dc/elements/1.1/" xmlns:cc="http://creativecommons.org/ns#" xmlns:rdf="http://www.w3.org/1999/02/22-rdf-syntax-ns#" xmlns:svg="http://www.w3.org/2000/svg" xmlns="http://www.w3.org/2000/svg" xmlns:sodipodi="http://sodipodi.sourceforge.net/DTD/sodipodi-0.dtd" xmlns:inkscape="http://www.inkscape.org/namespaces/inkscape" width="22" height="22" id="svg2" version="1.1" inkscape:version="0.48+devel r" viewBox="0 0 22 22" sodipodi:docname="document-open-remote.svg">
  <defs id="defs4">
    <style type="text/css" id="current-color-scheme">
      .ColorScheme-Text {
        color:#4d4d4d;
      }
      .ColorScheme-Background {
        color:#eff0f1;
      }
      .ColorScheme-Highlight {
        color:#3daee9;
      }
      .ColorScheme-ViewText {
        color:#31363b;
      }
      .ColorScheme-ViewBackground {
        color:#fcfcfc;
      }
      .ColorScheme-ViewHover {
        color:#93cee9;
      }
      .ColorScheme-ViewFocus{
        color:#3daee9;
      }
      .ColorScheme-ButtonText {
        color:#31363b;
      }
      .ColorScheme-ButtonBackground {
        color:#eff0f1;
      }
      .ColorScheme-ButtonHover {
        color:#93cee9;
      }
      .ColorScheme-ButtonFocus{
        color:#3daee9;
      }
      </style>
  </defs>
  <sodipodi:namedview id="base" pagecolor="#ffffff" bordercolor="#666666" borderopacity="1.0" inkscape:pageopacity="0.0" inkscape:pageshadow="2" inkscape:zoom="22.8375" inkscape:cx="-0.15675202" inkscape:cy="5.5107656" inkscape:document-units="px" inkscape:current-layer="layer1" showgrid="true" inkscape:showpageshadow="false" borderlayer="true" inkscape:window-width="1366" inkscape:window-height="668" inkscape:window-x="-2" inkscape:window-y="23" inkscape:window-maximized="1" units="px">
    <sodipodi:guide position="2,20.000017" orientation="18,0" id="guide4085"/>
    <sodipodi:guide position="2,2.0000174" orientation="0,18" id="guide4087"/>
    <sodipodi:guide position="20,2.0000174" orientation="-18,0" id="guide4089"/>
    <sodipodi:guide position="20,20.000017" orientation="0,-18" id="guide4091"/>
    <sodipodi:guide position="3,19.000017" orientation="16,0" id="guide4093"/>
    <sodipodi:guide position="3,3.0000174" orientation="0,16" id="guide4095"/>
    <sodipodi:guide position="19,3.0000174" orientation="-16,0" id="guide4097"/>
    <sodipodi:guide position="19,19.000017" orientation="0,-16" id="guide4099"/>
    <inkscape:grid type="xygrid" id="grid4101"/>
  </sodipodi:namedview>
  <metadata id="metadata7">
    <rdf:RDF>
      <cc:Work rdf:about="">
        <dc:format>image/svg+xml</dc:format>
        <dc:type rdf:resource="http://purl.org/dc/dcmitype/StillImage"/>
        <dc:title/>
      </cc:Work>
    </rdf:RDF>
  </metadata>
  <g inkscape:label="Capa 1" inkscape:groupmode="layer" id="layer1" transform="translate(0,-1030.3622)">
    <path style="fill:currentColor;fill-opacity:1;stroke:none" d="M 3 3 L 3 4 L 3 15 L 4 15 L 4 10 L 7 10 L 7 9.9921875 L 7.0078125 10 L 9.0078125 8 L 18 8 L 18 15 L 19 15 L 19 5 L 12.007812 5 L 10.007812 3 L 10 3.0078125 L 10 3 L 4 3 L 3 3 z M 9 16 L 9 17 L 3 17 L 3 18 L 9 18 L 9 19 L 13 19 L 13 18 L 19 18 L 19 17 L 13 17 L 13 16 L 9 16 z M 11 16.5 C 11.554 16.5 12 16.946 12 17.5 C 12 18.054 11.554 18.5 11 18.5 C 10.446 18.5 10 18.054 10 17.5 C 10 16.946 10.446 16.5 11 16.5 z " transform="translate(0,1030.3622)" id="rect4069" class="ColorScheme-Text"/>
  </g>
</svg>
